doc/models_brief.svg

<?xml version="1.0" encoding="UTF-8" standalone="no"?>
<!DOCTYPE svg PUBLIC "-//W3C//DTD SVG 1.1//EN"
 "http://www.w3.org/Graphics/SVG/1.1/DTD/svg11.dtd">
<!-- Generated by graphviz version 2.38.0 (20140413.2041)
 -->
<!-- Title: models_diagram Pages: 1 -->
<svg width="901pt" height="153pt"
 viewBox="0.00 0.00 901.28 153.00" xmlns="http://www.w3.org/2000/svg" xmlns:xlink="http://www.w3.org/1999/xlink">
<g id="graph0" class="graph" transform="scale(1 1) rotate(0) translate(4 149)">
<title>models_diagram</title>
<polygon fill="white" stroke="none" points="-4,4 -4,-149 897.277,-149 897.277,4 -4,4"/>
<!-- _diagram_info -->
<g id="node1" class="node"><title>_diagram_info</title>
<text text-anchor="start" x="159.59" y="-130.6" font-family="Times,serif" font-size="13.00">Models diagram</text>
<text text-anchor="start" x="159.59" y="-117.6" font-family="Times,serif" font-size="13.00">Date: Mar 07 2015 &#45; 22:07</text>
<text text-anchor="start" x="159.59" y="-104.6" font-family="Times,serif" font-size="13.00">Migration version: 20150303221447</text>
<text text-anchor="start" x="159.59" y="-91.6" font-family="Times,serif" font-size="13.00">Generated by RailRoady 1.3.0</text>
<text text-anchor="start" x="159.59" y="-78.6" font-family="Times,serif" font-size="13.00">http://railroady.prestonlee.com</text>
</g>
<!-- Alert -->
<g id="node2" class="node"><title>Alert</title>
<ellipse fill="none" stroke="black" cx="28.2774" cy="-18" rx="28.0565" ry="18"/>
<text text-anchor="middle" x="28.2774" y="-13.8" font-family="Times,serif" font-size="14.00">Alert</text>
</g>
<!-- Ally -->
<g id="node3" class="node"><title>Ally</title>
<ellipse fill="none" stroke="black" cx="101.277" cy="-18" rx="27" ry="18"/>
<text text-anchor="middle" x="101.277" y="-13.8" font-family="Times,serif" font-size="14.00">Ally</text>
</g>
<!-- Category -->
<g id="node4" class="node"><title>Category</title>
<ellipse fill="none" stroke="black" cx="189.277" cy="-18" rx="42.5456" ry="18"/>
<text text-anchor="middle" x="189.277" y="-13.8" font-family="Times,serif" font-size="14.00">Category</text>
</g>
<!-- Comment -->
<g id="node5" class="node"><title>Comment</title>
<ellipse fill="none" stroke="black" cx="295.277" cy="-18" rx="44.9768" ry="18"/>
<text text-anchor="middle" x="295.277" y="-13.8" font-family="Times,serif" font-size="14.00">Comment</text>
</g>
<!-- Medication -->
<g id="node6" class="node"><title>Medication</title>
<ellipse fill="none" stroke="black" cx="408.277" cy="-18" rx="50.2637" ry="18"/>
<text text-anchor="middle" x="408.277" y="-13.8" font-family="Times,serif" font-size="14.00">Medication</text>
</g>
<!-- Mood -->
<g id="node7" class="node"><title>Mood</title>
<ellipse fill="none" stroke="black" cx="508.277" cy="-18" rx="31.4723" ry="18"/>
<text text-anchor="middle" x="508.277" y="-13.8" font-family="Times,serif" font-size="14.00">Mood</text>
</g>
<!-- Strategy -->
<g id="node8" class="node"><title>Strategy</title>
<ellipse fill="none" stroke="black" cx="597.277" cy="-18" rx="39.6558" ry="18"/>
<text text-anchor="middle" x="597.277" y="-13.8" font-family="Times,serif" font-size="14.00">Strategy</text>
</g>
<!-- Support -->
<g id="node9" class="node"><title>Support</title>
<ellipse fill="none" stroke="black" cx="693.277" cy="-18" rx="38.2284" ry="18"/>
<text text-anchor="middle" x="693.277" y="-13.8" font-family="Times,serif" font-size="14.00">Support</text>
</g>
<!-- Moment -->
<g id="node10" class="node"><title>Moment</title>
<ellipse fill="none" stroke="black" cx="785.277" cy="-18" rx="36.1363" ry="18"/>
<text text-anchor="middle" x="785.277" y="-13.8" font-family="Times,serif" font-size="14.00">Moment</text>
</g>
<!-- User -->
<g id="node11" class="node"><title>User</title>
<ellipse fill="none" stroke="black" cx="866.277" cy="-18" rx="27" ry="18"/>
<text text-anchor="middle" x="866.277" y="-13.8" font-family="Times,serif" font-size="14.00">User</text>
</g>
<!-- ActiveRecord::Base -->
<g id="node12" class="node"><title>ActiveRecord::Base</title>
<ellipse fill="none" stroke="black" cx="458.277" cy="-108.5" rx="81.1422" ry="18"/>
<text text-anchor="middle" x="458.277" y="-104.3" font-family="Times,serif" font-size="14.00">ActiveRecord::Base</text>
</g>
<!-- ActiveRecord::Base&#45;&gt;Alert -->
<g id="edge1" class="edge"><title>ActiveRecord::Base&#45;&gt;Alert</title>
<path fill="none" stroke="black" d="M424.769,-91.8984C408.119,-84.7666 387.496,-76.8456 368.277,-72 236.779,-38.8452 195.815,-72.757 65.2774,-36 59.9698,-34.5055 54.4617,-32.3435 49.3679,-30.0595"/>
</g>
<!-- ActiveRecord::Base&#45;&gt;Ally -->
<g id="edge2" class="edge"><title>ActiveRecord::Base&#45;&gt;Ally</title>
<path fill="none" stroke="black" d="M424.265,-92.0224C407.671,-85.0077 387.243,-77.15 368.277,-72 268.003,-44.7706 236.607,-66.4968 137.277,-36 132.124,-34.4177 126.768,-32.2214 121.813,-29.9322"/>
</g>
<!-- ActiveRecord::Base&#45;&gt;Category -->
<g id="edge3" class="edge"><title>ActiveRecord::Base&#45;&gt;Category</title>
<path fill="none" stroke="black" d="M422.235,-92.3335C405.901,-85.7069 386.258,-78.0779 368.277,-72 312.698,-53.2131 297.393,-53.1186 241.277,-36 234.918,-34.06 228.149,-31.9099 221.669,-29.8097"/>
</g>
<!-- ActiveRecord::Base&#45;&gt;Comment -->
<g id="edge4" class="edge"><title>ActiveRecord::Base&#45;&gt;Comment</title>
<path fill="none" stroke="black" d="M429.136,-91.678C398.368,-74.9726 350.335,-48.8933 320.948,-32.9377"/>
</g>
<!-- ActiveRecord::Base&#45;&gt;Medication -->
<g id="edge5" class="edge"><title>ActiveRecord::Base&#45;&gt;Medication</title>
<path fill="none" stroke="black" d="M448.637,-90.4363C439.726,-74.6645 426.565,-51.3696 417.719,-35.7112"/>
</g>
<!-- ActiveRecord::Base&#45;&gt;Mood -->
<g id="edge6" class="edge"><title>ActiveRecord::Base&#45;&gt;Mood</title>
<path fill="none" stroke="black" d="M467.918,-90.4363C476.885,-74.5641 490.157,-51.0726 499.005,-35.4129"/>
</g>
<!-- ActiveRecord::Base&#45;&gt;Strategy -->
<g id="edge7" class="edge"><title>ActiveRecord::Base&#45;&gt;Strategy</title>
<path fill="none" stroke="black" d="M483.772,-91.2677C509.949,-74.6009 550.276,-48.9254 575.152,-33.0873"/>
</g>
<!-- ActiveRecord::Base&#45;&gt;Support -->
<g id="edge8" class="edge"><title>ActiveRecord::Base&#45;&gt;Support</title>
<path fill="none" stroke="black" d="M497.611,-92.6871C544.649,-74.9727 622.274,-45.7394 664.219,-29.9434"/>
</g>
<!-- ActiveRecord::Base&#45;&gt;Moment -->
<g id="edge9" class="edge"><title>ActiveRecord::Base&#45;&gt;Moment</title>
<path fill="none" stroke="black" d="M513.912,-95.3494C571.168,-82.3894 662.707,-60.4002 740.277,-36 746.013,-34.1957 752.082,-32.0616 757.843,-29.9259"/>
</g>
<!-- ActiveRecord::Base&#45;&gt;User -->
<g id="edge10" class="edge"><title>ActiveRecord::Base&#45;&gt;User</title>
<path fill="none" stroke="black" d="M528.499,-99.3566C604.292,-89.3395 727.903,-69.4191 830.277,-36 835.402,-34.327 840.746,-32.0953 845.7,-29.8006"/>
</g>
</g>
</svg>

<svg width="901pt" height="204" viewBox="0 0 901.28 153" xmlns="http://www.w3.org/2000/svg"><g class="graph" transform="translate(4 149)"><path fill="#fff" d="M-4 4v-153h901.277V4H-4z"/><g class="node"><text x="159.59" y="-130.6" font-family="Times,serif" font-size="13">Models diagram</text><text x="159.59" y="-117.6" font-family="Times,serif" font-size="13">Date: Mar 07 2015 - 22:07</text><text x="159.59" y="-104.6" font-family="Times,serif" font-size="13">Migration version: 20150303221447</text><text x="159.59" y="-91.6" font-family="Times,serif" font-size="13">Generated by RailRoady 1.3.0</text><text x="159.59" y="-78.6" font-family="Times,serif" font-size="13">http://railroady.prestonlee.com</text></g><g class="node"><ellipse fill="none" stroke="#000" cx="28.277" cy="-18" rx="28.056" ry="18"/><text text-anchor="middle" x="28.277" y="-13.8" font-family="Times,serif" font-size="14">Alert</text></g><g class="node"><ellipse fill="none" stroke="#000" cx="101.277" cy="-18" rx="27" ry="18"/><text text-anchor="middle" x="101.277" y="-13.8" font-family="Times,serif" font-size="14">Ally</text></g><g class="node"><ellipse fill="none" stroke="#000" cx="189.277" cy="-18" rx="42.546" ry="18"/><text text-anchor="middle" x="189.277" y="-13.8" font-family="Times,serif" font-size="14">Category</text></g><g class="node"><ellipse fill="none" stroke="#000" cx="295.277" cy="-18" rx="44.977" ry="18"/><text text-anchor="middle" x="295.277" y="-13.8" font-family="Times,serif" font-size="14">Comment</text></g><g class="node"><ellipse fill="none" stroke="#000" cx="408.277" cy="-18" rx="50.264" ry="18"/><text text-anchor="middle" x="408.277" y="-13.8" font-family="Times,serif" font-size="14">Medication</text></g><g class="node"><ellipse fill="none" stroke="#000" cx="508.277" cy="-18" rx="31.472" ry="18"/><text text-anchor="middle" x="508.277" y="-13.8" font-family="Times,serif" font-size="14">Mood</text></g><g class="node"><ellipse fill="none" stroke="#000" cx="597.277" cy="-18" rx="39.656" ry="18"/><text text-anchor="middle" x="597.277" y="-13.8" font-family="Times,serif" font-size="14">Strategy</text></g><g class="node"><ellipse fill="none" stroke="#000" cx="693.277" cy="-18" rx="38.228" ry="18"/><text text-anchor="middle" x="693.277" y="-13.8" font-family="Times,serif" font-size="14">Support</text></g><g class="node"><ellipse fill="none" stroke="#000" cx="785.277" cy="-18" rx="36.136" ry="18"/><text text-anchor="middle" x="785.277" y="-13.8" font-family="Times,serif" font-size="14">Moment</text></g><g class="node"><ellipse fill="none" stroke="#000" cx="866.277" cy="-18" rx="27" ry="18"/><text text-anchor="middle" x="866.277" y="-13.8" font-family="Times,serif" font-size="14">User</text></g><g class="node"><ellipse fill="none" stroke="#000" cx="458.277" cy="-108.5" rx="81.142" ry="18"/><text text-anchor="middle" x="458.277" y="-104.3" font-family="Times,serif" font-size="14">ActiveRecord::Base</text></g><g class="edge"><path fill="none" stroke="#000" d="M424.769-91.898c-16.65 7.131-37.273 15.052-56.492 19.898-131.498 33.155-172.462-.757-303 36-5.307 1.495-10.815 3.657-15.91 5.94"/></g><g class="edge"><path fill="none" stroke="#000" d="M424.265-92.022C407.671-85.008 387.243-77.15 368.277-72c-100.274 27.23-131.67 5.503-231 36-5.153 1.582-10.509 3.779-15.464 6.068"/></g><g class="edge"><path fill="none" stroke="#000" d="M422.235-92.334C405.901-85.707 386.258-78.078 368.277-72c-55.579 18.787-70.884 18.881-127 36-6.359 1.94-13.128 4.09-19.608 6.19"/></g><g class="edge"><path fill="none" stroke="#000" d="M429.136-91.678l-108.188 58.74"/></g><g class="edge"><path fill="none" stroke="#000" d="M448.637-90.436l-30.918 54.725"/></g><g class="edge"><path fill="none" stroke="#000" d="M467.918-90.436l31.087 55.023"/></g><g class="edge"><path fill="none" stroke="#000" d="M483.772-91.268l91.38 58.18"/></g><g class="edge"><path fill="none" stroke="#000" d="M497.611-92.687l166.608 62.744"/></g><g class="edge"><path fill="none" stroke="#000" d="M513.912-95.35C571.168-82.39 662.707-60.4 740.277-36c5.736 1.804 11.805 3.938 17.566 6.074"/></g><g class="edge"><path fill="none" stroke="#000" d="M528.499-99.357C604.292-89.34 727.903-69.419 830.277-36c5.125 1.673 10.469 3.905 15.423 6.2"/></g></g></svg>
